arcticons-light/symbolic/apps/figma-symbolic.svg

<?xml version="1.0" encoding="UTF-8" standalone="no"?>
<svg
   id="b"
   viewBox="0 0 48 48"
   version="1.1"
   sodipodi:docname="figma.svg"
   xmlns:inkscape="http://www.inkscape.org/namespaces/inkscape"
   xmlns:sodipodi="http://sodipodi.sourceforge.net/DTD/sodipodi-0.dtd"
   xmlns="http://www.w3.org/2000/svg"
   xmlns:svg="http://www.w3.org/2000/svg">
  <sodipodi:namedview
     id="namedview4"
     pagecolor="#ffffff"
     bordercolor="#666666"
     borderopacity="1.0"
     inkscape:showpageshadow="2"
     inkscape:pageopacity="0.0"
     inkscape:pagecheckerboard="0"
     inkscape:deskcolor="#d1d1d1" />
  <defs
     id="defs1">
    <style
       id="style1">.c{fill:none;stroke:#000;stroke-width:2px;stroke-linecap:round;stroke-linejoin:round;}</style>
  </defs>
  <path
     style="color:#000000;fill:#000000;stroke-linecap:round;stroke-linejoin:round;-inkscape-stroke:none"
     d="m 30.5,16.5 c -4.130287,0 -7.5,3.369713 -7.5,7.5 0,4.130287 3.369713,7.5 7.5,7.5 4.130287,0 7.5,-3.369713 7.5,-7.5 0,-4.130287 -3.369713,-7.5 -7.5,-7.5 z m 0,2 c 3.049408,0 5.5,2.450592 5.5,5.5 0,3.049408 -2.450592,5.5 -5.5,5.5 -3.049408,0 -5.5,-2.450592 -5.5,-5.5 0,-3.049408 2.450592,-5.5 5.5,-5.5 z"
     id="circle1" />
  <path
     style="color:#000000;fill:#000000;stroke-linecap:round;stroke-linejoin:round;-inkscape-stroke:none"
     d="m 17.5,29.5 c -4.130319,0 -7.5,3.369681 -7.5,7.5 0,4.130319 3.369681,7.5 7.5,7.5 4.130319,0 7.5,-3.369681 7.5,-7.5 v -6.5 a 1.0001,1.0001 0 0 0 -1,-1 z m 0,2 H 23 V 37 c 0,3.049473 -2.450527,5.5 -5.5,5.5 -3.049473,0 -5.5,-2.450527 -5.5,-5.5 0,-3.049473 2.450527,-5.5 5.5,-5.5 z"
     id="path1" />
  <path
     style="color:#000000;fill:#000000;stroke-linecap:round;stroke-linejoin:round;-inkscape-stroke:none"
     d="m 24,3.5 a 1.0001,1.0001 0 0 0 -1,1 v 13 a 1.0001,1.0001 0 0 0 1,1 h 6.5 C 34.630319,18.5 38,15.130319 38,11 38,6.8696805 34.630319,3.5 30.5,3.5 Z m 1,2 h 5.5 c 3.049473,0 5.5,2.4505266 5.5,5.5 0,3.049473 -2.450527,5.5 -5.5,5.5 H 25 Z"
     id="path2" />
  <path
     style="color:#000000;fill:#000000;stroke-linecap:round;stroke-linejoin:round;-inkscape-stroke:none"
     d="M 17.5,3.5 C 13.369681,3.5 10,6.8696805 10,11 c 0,4.130319 3.369681,7.5 7.5,7.5 H 24 a 1.0001,1.0001 0 0 0 1,-1 v -13 a 1.0001,1.0001 0 0 0 -1,-1 z m 0,2 H 23 v 11 H 17.5 C 14.450527,16.5 12,14.049473 12,11 12,7.9505266 14.450527,5.5 17.5,5.5 Z"
     id="path3" />
  <path
     style="color:#000000;fill:#000000;stroke-linecap:round;stroke-linejoin:round;-inkscape-stroke:none"
     d="m 17.5,16.5 c -4.130319,0 -7.5,3.369681 -7.5,7.5 0,4.130319 3.369681,7.5 7.5,7.5 H 24 a 1.0001,1.0001 0 0 0 1,-1 v -13 a 1.0001,1.0001 0 0 0 -1,-1 z m 0,2 H 23 v 11 H 17.5 C 14.450527,29.5 12,27.049473 12,24 c 0,-3.049473 2.450527,-5.5 5.5,-5.5 z"
     id="path4" />
</svg>

<?xml version="1.0" encoding="UTF-8"?>
<svg id="b" version="1.1" viewBox="0 0 48 48" xmlns="http://www.w3.org/2000/svg">
 <defs id="defs4">
  <style id="style2">.c{fill:none;stroke:#000;stroke-width:2px;stroke-linecap:round;stroke-linejoin:round;}</style>
 </defs>
 <path id="circle6" d="m30.5 16.5c-4.1303 0-7.5 3.3697-7.5 7.5s3.3697 7.5 7.5 7.5 7.5-3.3697 7.5-7.5-3.3697-7.5-7.5-7.5zm0 2c3.0494 0 5.5 2.4506 5.5 5.5s-2.4506 5.5-5.5 5.5-5.5-2.4506-5.5-5.5 2.4506-5.5 5.5-5.5z" color="#000000" stroke-linecap="round" stroke-linejoin="round" style="-inkscape-stroke:none"/>
 <path id="path8" d="m17.5 29.5c-4.1303 0-7.5 3.3697-7.5 7.5s3.3697 7.5 7.5 7.5 7.5-3.3697 7.5-7.5v-6.5a1.0001 1.0001 0 0 0-1-1zm0 2h5.5v5.5c0 3.0495-2.4505 5.5-5.5 5.5s-5.5-2.4505-5.5-5.5 2.4505-5.5 5.5-5.5z" color="#000000" stroke-linecap="round" stroke-linejoin="round" style="-inkscape-stroke:none"/>
 <path id="path10" d="m24 3.5a1.0001 1.0001 0 0 0-1 1v13a1.0001 1.0001 0 0 0 1 1h6.5c4.1303 0 7.5-3.3697 7.5-7.5 0-4.1303-3.3697-7.5-7.5-7.5zm1 2h5.5c3.0495 0 5.5 2.4505 5.5 5.5 0 3.0495-2.4505 5.5-5.5 5.5h-5.5z" color="#000000" stroke-linecap="round" stroke-linejoin="round" style="-inkscape-stroke:none"/>
 <path id="path12" d="m17.5 3.5c-4.1303 0-7.5 3.3697-7.5 7.5 0 4.1303 3.3697 7.5 7.5 7.5h6.5a1.0001 1.0001 0 0 0 1-1v-13a1.0001 1.0001 0 0 0-1-1zm0 2h5.5v11h-5.5c-3.0495 0-5.5-2.4505-5.5-5.5 0-3.0495 2.4505-5.5 5.5-5.5z" color="#000000" stroke-linecap="round" stroke-linejoin="round" style="-inkscape-stroke:none"/>
 <path id="path14" d="m17.5 16.5c-4.1303 0-7.5 3.3697-7.5 7.5s3.3697 7.5 7.5 7.5h6.5a1.0001 1.0001 0 0 0 1-1v-13a1.0001 1.0001 0 0 0-1-1zm0 2h5.5v11h-5.5c-3.0495 0-5.5-2.4505-5.5-5.5s2.4505-5.5 5.5-5.5z" color="#000000" stroke-linecap="round" stroke-linejoin="round" style="-inkscape-stroke:none"/>
</svg>
